packages/components/bolt-icons/src/svgs/pega/pega-building-hospital.svg

<svg viewBox="0 0 32 32" xmlns="http://www.w3.org/2000/svg"><path fill="#fff" d="m4.38 18.06h1.76v1.74h-1.76z"/><path fill="#fff" d="m4.38 21.83h1.76v1.74h-1.76z"/><path fill="#fff" d="m25.99 18.06h1.76v1.74h-1.76z"/><path fill="#fff" d="m25.99 21.83h1.76v1.74h-1.76z"/><path fill="#fff" d="m10.68 18.72h10.71a1 1 0 0 0 0-2h-10.71a1 1 0 0 0 0 2z"/><path fill="#fff" d="m14.9 15.47h2.38v-2.11h2.21v-2.2h-2.15v-2.24h-2.44v2.24h-2.15v2.2h2.15z"/><path fill="#fff" d="m31 24.48h-.27v-8.48a1 1 0 0 0 -1-1h-4.73v-8.48a1 1 0 0 0 -1-1h-15.88a1 1 0 0 0 -1 1v8.48h-4.71a1 1 0 0 0 -1 1v8.48h-.41a1 1 0 0 0 0 2h30a1 1 0 0 0 0-2zm-27.59-7.48h3.71v7.48h-3.71zm5.71-1v-8.48h13.88v17h-1.46v-2.79a1 1 0 0 0 .85-1 1 1 0 0 0 -1-1h-10.71a1 1 0 0 0 -1 1 1 1 0 0 0 .85 1v2.75h-1.41zm3.41 5.76h2.47v2.72h-2.47zm4.51 0h2.5v2.72h-2.54zm8 2.72v-7.48h3.71v7.48z"/></svg>

<svg id="icon-building-hospital" data-name="building-hospital" xmlns="http://www.w3.org/2000/svg" viewBox="0 0 32 32"><rect x="4.38" y="18.06" width="1.76" height="1.74"/><rect x="4.38" y="21.83" width="1.76" height="1.74"/><rect x="25.99" y="18.06" width="1.76" height="1.74"/><rect x="25.99" y="21.83" width="1.76" height="1.74"/><path d="M10.68,18.72H21.39a1,1,0,0,0,0-2H10.68a1,1,0,0,0,0,2Z"/><polygon points="14.9 15.47 17.28 15.47 17.28 13.36 19.49 13.36 19.49 11.16 17.34 11.16 17.34 8.92 14.9 8.92 14.9 11.16 12.75 11.16 12.75 13.36 14.9 13.36 14.9 15.47"/><path d="M31,24.48h-.27V16a1,1,0,0,0-1-1H25V6.52a1,1,0,0,0-1-1H8.12a1,1,0,0,0-1,1V15H2.41a1,1,0,0,0-1,1v8.48H1a1,1,0,0,0,0,2H31a1,1,0,0,0,0-2ZM3.41,17H7.12v7.48H3.41Zm5.71-1V7.52H23v17H21.54V21.73a1,1,0,0,0,.85-1,1,1,0,0,0-1-1H10.68a1,1,0,0,0-1,1,1,1,0,0,0,.85,1v2.75H9.12Zm3.41,5.76H15v2.72H12.53Zm4.51,0h2.5v2.72H17Zm8,2.72V17h3.71v7.48Z"/></svg>
